assets/features/channel/southeast-asia1/Metrobank-MTPOY.svg

<svg width="80" height="80" viewBox="0 0 80 80" fill="none" xmlns="http://www.w3.org/2000/svg">
<rect x="0.5" y="0.5" width="79" height="79" rx="7.5" fill="white"/>
<rect x="0.5" y="0.5" width="79" height="79" rx="7.5" stroke="#EEEEEE"/>
<path fill-rule="evenodd" clip-rule="evenodd" d="M39.2878 20.0441C40.0805 19.6693 40.83 20.3323 41.493 20.7215C47.2585 24.5988 53.1248 28.3031 58.8758 32.1803C60.4325 33.2325 60.3172 35.7981 58.7173 36.7638C52.678 40.742 46.5955 44.6625 40.5562 48.6695C40.1382 48.9577 39.5472 48.9722 39.1148 48.6983C33.2917 44.8931 27.4686 41.1023 21.6599 37.3116C20.7375 36.735 19.6564 36.0143 19.642 34.8036C19.397 33.5352 20.2618 32.3677 21.2996 31.7479C27.3101 27.8706 33.2196 23.8348 39.2878 20.0441ZM45.9613 27.7697C46.927 29.312 47.9503 30.8254 48.8584 32.4109C49.9394 32.483 51.0204 32.4686 52.087 32.4109C50.0259 30.8975 47.8783 29.4706 45.9613 27.7697ZM27.483 32.4253C28.5352 32.4542 29.6018 32.5118 30.654 32.4109C31.6486 30.9407 32.5566 29.4129 33.58 27.9571C31.5621 29.4561 29.5586 30.984 27.483 32.4253ZM34.9493 32.4542C35.9198 32.4542 36.8903 32.4542 37.8608 32.4542C37.8608 30.9744 37.856 29.4994 37.8464 28.0292C36.9672 29.557 35.9582 30.9984 34.9493 32.4542ZM41.7813 28.1733C41.7621 29.5955 41.7621 31.0224 41.7813 32.4542C42.723 32.4542 43.6599 32.4542 44.592 32.4542C43.6551 31.0128 42.7182 29.6003 41.7813 28.1733ZM27.483 36.3314C29.5442 37.8593 31.5909 39.3871 33.6376 40.915C32.571 39.4448 31.6053 37.8881 30.6396 36.3458C29.5874 36.3314 28.5352 36.3458 27.483 36.3314ZM34.9349 36.3458C35.9438 37.816 36.9528 39.3006 37.8752 40.8285C37.8608 39.3295 37.8608 37.8304 37.8752 36.3458C36.8951 36.3458 35.915 36.3458 34.9349 36.3458ZM41.7957 36.3314C41.7669 37.7872 41.7669 39.243 41.7813 40.6843C42.7038 39.2286 43.6695 37.7872 44.6352 36.3458C43.6839 36.3458 42.747 36.317 41.7957 36.3314ZM49.089 36.3314C47.9503 37.8449 46.999 39.4592 46.0045 41.0591C47.9215 39.3006 50.098 37.8737 52.1879 36.3314C51.1598 36.341 50.1268 36.341 49.089 36.3314ZM19.6709 39.9925C19.7429 39.1132 20.8528 38.4935 21.6167 38.9691C23.3319 39.8916 24.8598 41.0879 26.5029 42.1257C30.9279 45.0228 35.252 48.0785 39.7634 50.8459C40.5994 50.4423 41.4066 49.9379 42.1849 49.419C47.1864 46.075 52.2023 42.7167 57.2183 39.3871C57.8237 38.9835 58.5299 38.7385 59.265 38.8394C59.5052 39.1853 59.7503 39.5216 60.0001 39.8483C60.0001 45.6859 59.9713 51.5234 60.0001 57.3465C59.9713 58.759 58.7461 60.0994 57.3048 60.0562C45.6586 60.0706 34.0268 60.0706 22.395 60.0562C21.3717 60.1571 20.5068 59.4508 19.988 58.6437C19.6276 58.096 19.6997 57.4329 19.6853 56.8131C19.6853 51.2063 19.6709 45.5994 19.6709 39.9925ZM42.8479 54.0169C42.1417 54.4205 41.4642 54.9394 40.6282 55.0691C39.4607 55.2853 38.2356 54.9394 37.241 54.3196C33.3494 51.8837 29.4433 49.4478 25.5372 47.0407C25.1624 46.8101 24.7733 46.5218 24.2976 46.6371C24.24 49.5919 24.2832 52.5323 24.2544 55.4727C24.8165 55.6312 25.3786 55.7321 25.9552 55.7177C35.7132 55.7033 45.4856 55.7321 55.2436 55.6601C55.5031 54.0313 55.4166 52.3738 55.431 50.7306C55.4166 49.3037 55.5175 47.8623 55.2292 46.4642C51.006 48.8136 46.999 51.5378 42.8479 54.0169Z" fill="#023184"/>
</svg>

<svg xmlns="http://www.w3.org/2000/svg" width="80" height="80" fill="none" viewBox="0 0 80 80"><rect width="79" height="79" x=".5" y=".5" fill="#fff" rx="7.5"/><rect width="79" height="79" x=".5" y=".5" stroke="#eee" rx="7.5"/><path fill="#023184" fill-rule="evenodd" d="M39.288 20.044c.793-.375 1.542.288 2.205.677 5.765 3.878 11.632 7.582 17.383 11.46 1.556 1.052 1.441 3.617-.159 4.583-6.039 3.978-12.121 7.898-18.16 11.905a1.34 1.34 0 0 1-1.442.03c-5.823-3.806-11.646-7.597-17.455-11.387-.922-.577-2.004-1.298-2.018-2.508-.245-1.269.62-2.436 1.658-3.056 6.01-3.877 11.92-7.913 17.988-11.704m6.673 7.726c.966 1.542 1.99 3.055 2.897 4.64 1.081.073 2.162.059 3.229 0-2.061-1.512-4.209-2.94-6.126-4.64m-18.478 4.655c1.052.03 2.119.087 3.171-.014.995-1.47 1.903-2.998 2.926-4.454-2.018 1.5-4.021 3.027-6.097 4.468m7.466.03h2.912q0-2.22-.015-4.426c-.879 1.528-1.888 2.97-2.897 4.425m6.832-4.282q-.029 2.134 0 4.281h2.811c-.937-1.441-1.874-2.854-2.81-4.28m-14.298 8.158c2.061 1.528 4.108 3.056 6.155 4.584-1.067-1.47-2.033-3.027-2.998-4.57-1.053-.014-2.105 0-3.157-.014m7.452.015c1.009 1.47 2.018 2.955 2.94 4.483a233 233 0 0 1 0-4.483zm6.86-.015a146 146 0 0 0-.014 4.353c.923-1.455 1.889-2.897 2.854-4.338-.951 0-1.888-.029-2.84-.015m7.294 0c-1.139 1.514-2.09 3.128-3.084 4.728 1.916-1.758 4.093-3.185 6.183-4.728q-1.542.015-3.099 0m-29.418 3.661c.072-.879 1.182-1.498 1.946-1.023 1.715.923 3.243 2.119 4.886 3.157 4.425 2.897 8.749 5.953 13.26 8.72.836-.404 1.644-.908 2.422-1.427 5.001-3.344 10.017-6.702 15.033-10.032.606-.404 1.312-.648 2.047-.548q.36.52.735 1.01c0 5.837-.029 11.674 0 17.498-.029 1.412-1.254 2.752-2.695 2.71-11.646.014-23.278.014-34.91 0-1.023.1-1.888-.606-2.407-1.413-.36-.548-.288-1.211-.303-1.83 0-5.608-.014-11.215-.014-16.821m23.177 14.025c-.706.403-1.384.922-2.22 1.052-1.167.216-2.392-.13-3.387-.75a1972 1972 0 0 0-11.704-7.278c-.375-.23-.764-.52-1.24-.404-.057 2.955-.014 5.895-.043 8.836.563.158 1.125.26 1.701.245 9.758-.015 19.53.014 29.289-.058.26-1.629.173-3.286.187-4.93-.014-1.426.087-2.868-.202-4.266-4.223 2.35-8.23 5.074-12.381 7.553" clip-rule="evenodd"/></svg>
